X:15
T:3. Ronde
C:Tielman Susato
B:Tielman Susato: "Danserye" (1551) no. 15
R:Ronde
Z:Transcribed by Frank Nordberg - http://www.musicaviva.com
F:http://abc.musicaviva.com/tunes/susato-tielman/susato-1551-15/susato-1551-15-4m.abc
M:4/2
L:1/2
K:Ddor
V:1
AA/G/ F/E/F|F/G/A/F/GE-|E/F/G/E/FD-|D/E/F/D/EA,|A>G F/E/F|F/G/A/F/GE|
V:2
DD/D/DD|DDB,C|CCA,B,|A,D2^C|DD/D/DD|DDB,C|
V:3
A,A,/_B,/A,A,|A,A,G,2|G,G,F,G,|F,2E,2|D,/E,/F,/G,/A,A,|A,A,G,A,|
V:4
D,D,/G,,/D,D,|D,D,E,C,|C,C,D,G,,|D,2A,,A,,|D,D,/G,,/D,D,|D,D,E,A,,/B,,/|
%
V:1
E/F/G/E/FE/D/|^C/B,/D/C/DD::AAF/D/E/F/|G/E/F/G/AA|G/A/B/A/ G/F/E/D/|C/B,/D/^C/D2:|
V:2
CB,DB,|A,2A,A,::DDDC/D/|E/C/DEC|EFEB,|CA,A,2:|
V:3
A,G,A,G,/F,/|E,/D,/E,D,D,::F,>G,A,A,|G,A,/B,/CA,|B,/C/D/C/ B,/A,/G,/F,/|E,/D,/E,D,2:|
V:4
C,/D,/E,D,G,,|A,,2D,D,::D,D,D,A,,|E,D,C,F,|E,D,E,2|A,,2D,2:|
W:
W:
W:  From Musica Viva - http://www.musicaviva.com
W:  the Internet center for free sheet music downloads.
